svgs/thin/hockey-puck.svg

<svg xmlns="http://www.w3.org/2000/svg" viewBox="0 0 512 512"><!-- Font Awesome Pro 6.0.0-alpha2 by @fontawesome - https://fontawesome.com License - https://fontawesome.com/license (Commercial License) --><path d="M256 80C112.453 80 0 122.156 0 176V336C0 389.844 112.453 432 256 432S512 389.844 512 336V176C512 122.156 399.547 80 256 80ZM256 96C399.562 96 496 137.375 496 176S399.562 256 256 256S16 214.625 16 176S112.438 96 256 96ZM496 336C496 374.625 399.562 416 256 416S16 374.625 16 336V209.734C51.717 246.426 144.309 272 256 272S460.283 246.426 496 209.734V336Z"/></svg>

<svg xmlns="http://www.w3.org/2000/svg" viewBox="0 0 512 512"><!--! Font Awesome Pro 6.3.0 by @fontawesome - https://fontawesome.com License - https://fontawesome.com/license (Commercial License) Copyright 2023 Fonticons, Inc. --><path d="M256 80c-143.5 0-256 42.16-256 96v160c0 53.84 112.5 96 256 96s256-42.16 256-96v-160C512 122.2 399.5 80 256 80zM256 96c143.6 0 240 41.38 240 80S399.6 256 256 256S16 214.6 16 176S112.4 96 256 96zM496 336c0 38.63-96.44 80-240 80s-240-41.38-240-80V209.7C51.72 246.4 144.3 272 256 272s204.3-25.57 240-62.27V336z"/></svg>
